icons/thunder-day.svg

<svg width="51" height="51" viewBox="0 0 51 51" fill="none" xmlns="http://www.w3.org/2000/svg">
<path d="M0 25.1415C0 27.7943 0.785714 30.1842 2.35714 32.2634C3.92857 34.3425 5.97619 35.7526 8.45238 36.4456L6.92857 40.4606C6.80952 40.7952 6.92857 40.9864 7.2619 40.9864H12.3095L9.83333 51H10.5L19.9524 37.5689C20.0476 37.4733 20.0476 37.3538 19.9762 37.2343C19.9048 37.1148 19.7857 37.067 19.619 37.067H14.4524L20.3333 26.0497C20.5 25.7151 20.381 25.5239 20 25.5239H13C12.7857 25.5239 12.619 25.6434 12.4524 25.8585L9.90476 32.7174C8.21428 32.3112 6.80952 31.3791 5.69048 29.993C4.57143 28.6068 4.02381 26.9817 4.02381 25.1654C4.02381 23.1818 4.69048 21.4611 6.02381 20.0033C7.35714 18.5455 9.02381 17.709 11.0238 17.47L12.2857 17.3744C12.5714 17.3744 12.7143 17.231 12.7143 16.9442L12.881 15.6776C13.0476 13.9808 13.5952 12.4513 14.5238 11.0412C15.4524 9.65511 16.6667 8.55576 18.1429 7.7671C19.619 6.97844 21.2143 6.57216 22.9286 6.57216C25.5 6.57216 27.7619 7.45642 29.6905 9.20103C31.619 10.9456 32.7143 13.0965 33 15.6776L33.1905 17.0159C33.1905 17.3027 33.3333 17.47 33.5952 17.47H37.4524C39.5714 17.47 41.3809 18.2348 42.9286 19.7643C44.4762 21.2938 45.2381 23.0862 45.2381 25.1893C45.2381 27.2446 44.5238 29.037 43.0952 30.5665C41.6667 32.0961 39.9286 32.8847 37.9048 33.0042C37.5952 33.0042 37.4286 33.1476 37.4286 33.4344V36.6368C37.4286 36.8997 37.5952 37.0431 37.9048 37.0431C39.9762 36.9953 41.881 36.4217 43.619 35.3224C45.3571 34.247 46.7381 32.813 47.7143 31.0206C48.6905 29.2282 49.2143 27.2924 49.2143 25.2132C49.2143 23.4686 48.881 21.8674 48.2143 20.4096C50.0714 18.187 51 15.5581 51 12.4991C51 10.8022 50.6667 9.20103 50 7.67151C49.3333 6.14199 48.4524 4.80365 47.3333 3.68041C46.2143 2.55717 44.9048 1.67291 43.3571 1.00375C41.8333 0.334583 40.2143 0 38.5476 0C34.8809 0 31.8095 1.38613 29.3571 4.13449C27.4286 3.10684 25.2857 2.58107 22.9286 2.58107C19.5714 2.58107 16.5952 3.63262 14 5.71181C11.4048 7.791 9.7381 10.4677 9 13.7179C6.38095 14.3393 4.21429 15.7015 2.5 17.8524C0.785714 20.0033 0 22.3932 0 25.1415ZM18.881 48.7535C18.881 49.1359 19 49.5183 19.2381 49.8529C19.4762 50.1874 19.8333 50.4503 20.3095 50.5937L20.9048 50.6654C21.9048 50.6654 22.5238 50.1874 22.8095 49.2315L28.5952 27.9855C28.7381 27.4358 28.6905 26.91 28.4286 26.456C28.1667 25.978 27.7857 25.6673 27.2619 25.5C26.7143 25.3327 26.1905 25.3805 25.7143 25.6434C25.2381 25.9063 24.9048 26.3126 24.7619 26.8383L18.9286 48.1082C18.9048 48.5145 18.881 48.7296 18.881 48.7535ZM28.7381 41.5122C28.7381 42.4681 29.2381 43.1134 30.2143 43.4241C30.619 43.4719 30.8333 43.4958 30.8333 43.4958C31.0952 43.4958 31.381 43.448 31.6667 43.3046C32.1429 43.0895 32.4762 42.6593 32.6667 41.9902L36.5714 28.0094C36.7143 27.4597 36.6667 26.9339 36.3809 26.4799C36.119 26.0019 35.7143 25.6912 35.1667 25.5239C34.619 25.3566 34.0952 25.4044 33.619 25.6673C33.1429 25.9302 32.8333 26.3365 32.6905 26.8622L28.8333 40.9386C28.7857 41.2732 28.7381 41.4644 28.7381 41.5122ZM32.7143 6.38097C34.3333 4.85145 36.2857 4.08669 38.619 4.08669C40.9286 4.08669 42.9048 4.89925 44.5238 6.52437C46.1667 8.14949 46.9762 10.1331 46.9762 12.4513C46.9762 13.9569 46.5714 15.4386 45.7619 16.8725C43.4762 14.5783 40.7143 13.4311 37.4762 13.4311H36.7143C36.0476 10.6828 34.7143 8.34067 32.7143 6.38097Z" fill="#0F172A"/>
</svg>

<?xml version="1.0" encoding="UTF-8"?><svg id="Layer_2" xmlns="http://www.w3.org/2000/svg" viewBox="0 0 51 51"><defs><style>.cls-1{fill:#fffefa;}</style></defs><g id="Layer_1-2"><path id="thunder-day" class="cls-1" d="M0,25.14c0,2.65,.79,5.04,2.36,7.12,1.57,2.08,3.62,3.49,6.1,4.18l-1.52,4.02c-.12,.33,0,.53,.33,.53h5.05l-2.48,10.01h.67l9.45-13.43c.1-.1,.1-.22,.02-.33-.07-.12-.19-.17-.36-.17h-5.17l5.88-11.02c.17-.33,.05-.53-.33-.53h-7c-.21,0-.38,.12-.55,.33l-2.55,6.86c-1.69-.41-3.1-1.34-4.21-2.72-1.12-1.39-1.67-3.01-1.67-4.83,0-1.98,.67-3.7,2-5.16,1.33-1.46,3-2.29,5-2.53l1.26-.1c.29,0,.43-.14,.43-.43l.17-1.27c.17-1.7,.71-3.23,1.64-4.64,.93-1.39,2.14-2.49,3.62-3.27,1.48-.79,3.07-1.19,4.79-1.19,2.57,0,4.83,.88,6.76,2.63,1.93,1.74,3.02,3.9,3.31,6.48l.19,1.34c0,.29,.14,.45,.4,.45h3.86c2.12,0,3.93,.76,5.48,2.29,1.55,1.53,2.31,3.32,2.31,5.43s-.71,3.85-2.14,5.38c-1.43,1.53-3.17,2.32-5.19,2.44-.31,0-.48,.14-.48,.43v3.2c0,.26,.17,.41,.48,.41,2.07-.05,3.98-.62,5.71-1.72,1.74-1.08,3.12-2.51,4.1-4.3,.98-1.79,1.5-3.73,1.5-5.81,0-1.74-.33-3.35-1-4.8,1.86-2.22,2.79-4.85,2.79-7.91,0-1.7-.33-3.3-1-4.83-.67-1.53-1.55-2.87-2.67-3.99-1.12-1.12-2.43-2.01-3.98-2.68-1.52-.67-3.14-1-4.81-1-3.67,0-6.74,1.39-9.19,4.13-1.93-1.03-4.07-1.55-6.43-1.55-3.36,0-6.33,1.05-8.93,3.13-2.6,2.08-4.26,4.76-5,8.01-2.62,.62-4.79,1.98-6.5,4.13-1.71,2.15-2.5,4.54-2.5,7.29Zm18.88,23.61c0,.38,.12,.76,.36,1.1,.24,.33,.6,.6,1.07,.74l.6,.07c1,0,1.62-.48,1.9-1.43l5.79-21.25c.14-.55,.1-1.08-.17-1.53-.26-.48-.64-.79-1.17-.96-.55-.17-1.07-.12-1.55,.14s-.81,.67-.95,1.19l-5.83,21.27c-.02,.41-.05,.62-.05,.65Zm9.86-7.24c0,.96,.5,1.6,1.48,1.91,.4,.05,.62,.07,.62,.07,.26,0,.55-.05,.83-.19,.48-.22,.81-.65,1-1.31l3.9-13.98c.14-.55,.1-1.08-.19-1.53-.26-.48-.67-.79-1.21-.96-.55-.17-1.07-.12-1.55,.14-.48,.26-.79,.67-.93,1.19l-3.86,14.08c-.05,.33-.1,.53-.1,.57Zm3.98-35.13c1.62-1.53,3.57-2.29,5.9-2.29s4.29,.81,5.9,2.44c1.64,1.63,2.45,3.61,2.45,5.93,0,1.51-.4,2.99-1.21,4.42-2.29-2.29-5.05-3.44-8.29-3.44h-.76c-.67-2.75-2-5.09-4-7.05Z"/></g></svg>
